assets/images/logo-real-simple.svg

<?xml version="1.0" encoding="UTF-8"?>
<svg width="219px" height="25px" viewBox="0 0 219 25" version="1.1" xmlns="http://www.w3.org/2000/svg" xmlns:xlink="http://www.w3.org/1999/xlink">
    <!-- Generator: Sketch 45.2 (43514) - http://www.bohemiancoding.com/sketch -->
    <title>Real_Simple</title>
    <desc>Created with Sketch.</desc>
    <defs></defs>
    <g id="Page-1" stroke="none" stroke-width="1" fill="none" fill-rule="evenodd">
        <g id="Main-V3" transform="translate(-611.000000, -841.000000)">
            <g id="Companies" transform="translate(0.000000, 767.000000)">
                <g id="Real_Simple" transform="translate(611.000000, 74.000000)">
                    <path d="M4.95423529,10.5052632 L4.95423529,5.65263158 L10.2562353,5.65263158 C12.376,5.65263158 13.6131765,6.55131579 13.6131765,8.16842105 C13.6131765,9.60657895 12.2,10.5052632 10.0789412,10.5052632 L4.95423529,10.5052632 Z M0.00552941176,24.5197368 L4.95423529,24.5197368 L4.95423529,15.5355263 L10.0789412,15.5355263 L13.6131765,24.5197368 L18.9151765,24.5197368 L15.0276471,14.4578947 L15.2049412,14.2776316 C17.1487059,12.8407895 18.3858824,10.325 18.3858824,7.98947368 C18.3858824,3.49736842 15.2049412,0.621052632 10.4322353,0.621052632 L0.00552941176,0.621052632 L0.00552941176,24.5197368 L0.00552941176,24.5197368 Z" id="Fill-2" fill="#DDDDDD"></path>
                    <polyline id="Fill-3" fill="#DDDDDD" points="22.98 0.621052632 40.2991765 0.621052632 40.2991765 5.65263158 28.1047059 5.65263158 28.1047059 9.24736842 34.6451765 9.24736842 34.6451765 14.2776316 28.1047059 14.2776316 28.1047059 19.6684211 40.4764706 19.6684211 40.4764706 24.5197368 22.98 24.5197368 22.98 0.621052632"></polyline>
                    <path d="M52.3176471,14.2776316 L54.792,8.34868421 L57.2663529,14.2776316 L52.3176471,14.2776316 Z M48.0755294,24.5197368 L50.3738824,19.3092105 L59.2101176,19.3092105 L61.5071765,24.5197368 L66.6318824,24.5197368 L56.9117647,0.621052632 L52.8482353,0.621052632 L42.9508235,24.5197368 L48.0755294,24.5197368 L48.0755294,24.5197368 Z" id="Fill-4" fill="#DDDDDD"></path>
                    <polyline id="Fill-5" fill="#DDDDDD" points="69.9901176 0.621052632 75.1148235 0.621052632 75.1148235 19.6684211 87.4865882 19.6684211 87.4865882 24.5197368 69.9901176 24.5197368 69.9901176 0.621052632"></polyline>
                    <path d="M95.9695294,16.4342105 C98.2665882,19.3092105 99.6810588,20.0276316 101.978118,20.0276316 C104.452471,20.0276316 106.220235,18.95 106.220235,17.3328947 C106.220235,16.075 105.159059,15.3565789 102.155412,14.6368421 C97.9132941,13.5592105 96.3228235,12.6605263 95.0856471,10.8631579 C94.5550588,9.78552632 94.2017647,8.70789474 94.2017647,7.45 C94.2017647,3.31710526 97.3827059,0.442105263 101.978118,0.442105263 C105.336353,0.442105263 108.870588,2.23815789 110.991647,5.11447368 L107.456118,8.16842105 C104.983059,6.01315789 103.921882,5.47368421 101.800824,5.47368421 C100.034353,5.47368421 98.9731765,6.19210526 98.9731765,7.26973684 C98.9731765,8.34868421 99.6810588,8.88684211 101.624824,9.24736842 C102.155412,9.42631579 102.862,9.60657895 103.745882,9.96578947 L106.749529,10.8631579 C109.223882,11.7618421 110.991647,14.2776316 110.991647,17.1526316 C110.991647,21.6447368 107.280118,24.8789474 102.331412,24.8789474 C99.6810588,24.8789474 96.8534118,23.8013158 95.0856471,22.3631579 C94.3790588,21.825 93.6724706,20.9263158 92.6112941,19.8486842 C92.258,19.6684211 92.258,19.4894737 91.9047059,19.1289474 L95.9695294,16.4342105" id="Fill-6" fill="#999999"></path>
                    <polygon id="Fill-7" fill="#999999" points="116.822941 24.5197368 121.771647 24.5197368 121.771647 0.621052632 116.822941 0.621052632"></polygon>
                    <polyline id="Fill-8" fill="#999999" points="128.664118 0.621052632 133.259529 0.621052632 139.090824 13.5592105 145.099412 0.621052632 150.048118 0.621052632 150.048118 24.5197368 145.099412 24.5197368 145.099412 12.4815789 139.090824 24.5197368 133.435529 12.6605263 133.435529 24.5197368 128.664118 24.5197368 128.664118 0.621052632"></polyline>
                    <path d="M162.066588,10.5052632 L162.066588,5.65263158 L168.075176,5.65263158 C170.018941,5.65263158 171.078824,6.55131579 171.078824,8.16842105 C171.078824,9.60657895 169.841647,10.5052632 167.897882,10.5052632 L162.066588,10.5052632 Z M157.117882,24.5197368 L162.242588,24.5197368 L162.242588,15.5355263 L168.075176,15.5355263 C172.669294,15.5355263 176.027529,12.4815789 176.027529,8.16842105 C176.027529,3.67631579 172.846588,0.621052632 168.075176,0.621052632 L157.117882,0.621052632 L157.117882,24.5197368 L157.117882,24.5197368 Z" id="Fill-9" fill="#999999"></path>
                    <polyline id="Fill-10" fill="#999999" points="180.269647 0.621052632 185.394353 0.621052632 185.394353 19.6684211 197.764824 19.6684211 197.764824 24.5197368 180.269647 24.5197368 180.269647 0.621052632"></polyline>
                    <polyline id="Fill-11" fill="#999999" points="201.476353 0.621052632 218.619529 0.621052632 218.619529 5.65263158 206.425059 5.65263158 206.425059 9.24736842 213.140235 9.24736842 213.140235 14.2776316 206.425059 14.2776316 206.425059 19.6684211 218.972824 19.6684211 218.972824 24.5197368 201.476353 24.5197368 201.476353 0.621052632"></polyline>
                </g>
            </g>
        </g>
    </g>
</svg>

<svg width="219" height="25" viewBox="0 0 219 25" xmlns="http://www.w3.org/2000/svg"><title>Real_Simple</title><g fill="none" fill-rule="evenodd"><path d="M4.954 10.505V5.653h5.302c2.12 0 3.357.898 3.357 2.515 0 1.439-1.413 2.337-3.534 2.337H4.954zM.006 24.52h4.948v-8.984h5.125l3.534 8.984h5.302l-3.887-10.062.177-.18c1.944-1.437 3.18-3.953 3.18-6.289 0-4.492-3.18-7.368-7.953-7.368H.006V24.52zM22.98.621H40.3v5.032H28.104v3.594h6.54v5.03h-6.54v5.391h12.371v4.852H22.98V.62M52.318 14.278l2.474-5.93 2.474 5.93h-4.948zM48.076 24.52l2.298-5.21h8.836l2.297 5.21h5.125L56.912.62h-4.064L42.951 24.52h5.125zM69.99.621h5.125v19.047h12.372v4.852H69.99V.62" fill="#DDD"/><path d="M95.97 16.434c2.297 2.875 3.711 3.594 6.008 3.594 2.474 0 4.242-1.078 4.242-2.695 0-1.258-1.06-1.976-4.065-2.696-4.242-1.078-5.832-1.976-7.07-3.774-.53-1.077-.883-2.155-.883-3.413 0-4.133 3.18-7.008 7.776-7.008 3.358 0 6.893 1.796 9.014 4.672l-3.536 3.054c-2.473-2.155-3.534-2.694-5.655-2.694-1.767 0-2.828.718-2.828 1.796 0 1.079.708 1.617 2.652 1.977.53.18 1.237.36 2.12.719l3.005.897c2.474.899 4.242 3.415 4.242 6.29 0 4.492-3.712 7.726-8.66 7.726-2.65 0-5.479-1.078-7.246-2.516-.707-.538-1.414-1.437-2.475-2.514-.353-.18-.353-.36-.706-.72l4.065-2.695M116.823 24.52h4.949V.62h-4.95zM128.664.621h4.596l5.83 12.938L145.1.621h4.948V24.52H145.1V12.482l-6.008 12.038-5.655-11.86v11.86h-4.772V.62M162.067 10.505V5.653h6.008c1.944 0 3.004.898 3.004 2.515 0 1.439-1.237 2.337-3.181 2.337h-5.831zm-4.95 14.015h5.126v-8.984h5.832c4.594 0 7.953-3.054 7.953-7.368 0-4.492-3.181-7.547-7.953-7.547h-10.957V24.52zM180.27.621h5.124v19.047h12.37v4.852H180.27V.62M201.476.621h17.144v5.032h-12.195v3.594h6.715v5.03h-6.715v5.391h12.548v4.852h-17.497V.62" fill="#999"/></g></svg>
